packages/kaspersky-hexa-ui-icons/src/iconsSVGs/16/Structure.svg

<svg width="16" height="16" viewBox="0 0 16 16" fill="none" xmlns="http://www.w3.org/2000/svg">
<path fill-rule="evenodd" clip-rule="evenodd" d="M4.90515 2.59995C4.90515 1.68868 5.64388 0.949951 6.55515 0.949951H9.44547C10.3567 0.949951 11.0955 1.68868 11.0955 2.59995V4.56622C11.0955 5.47749 10.3567 6.21622 9.44547 6.21622H8.65034V7.22302H11.7204C12.0793 7.22302 12.3704 7.51404 12.3704 7.87302V9.78363H13.3584C14.2697 9.78363 15.0084 10.5224 15.0084 11.4336V13.3999C15.0084 14.3112 14.2697 15.0499 13.3584 15.0499H10.4681C9.55685 15.0499 8.81811 14.3112 8.81811 13.3999V11.4336C8.81811 10.5224 9.55684 9.78363 10.4681 9.78363H11.0704V8.52302H4.93031V9.78363H5.53251C6.44378 9.78363 7.18251 10.5224 7.18251 11.4336V13.3999C7.18251 14.3112 6.44378 15.0499 5.53251 15.0499H2.64219C1.73092 15.0499 0.992188 14.3112 0.992188 13.3999V11.4336C0.992188 10.5224 1.73092 9.78363 2.64219 9.78363H3.63031V7.87302C3.63031 7.51404 3.92133 7.22302 4.28031 7.22302H7.35034V6.21622H6.55515C5.64388 6.21622 4.90515 5.47749 4.90515 4.56622V2.59995ZM6.55515 2.24995C6.36185 2.24995 6.20515 2.40665 6.20515 2.59995V4.56622C6.20515 4.75952 6.36185 4.91622 6.55515 4.91622H9.44547C9.63877 4.91622 9.79547 4.75952 9.79547 4.56622V2.59995C9.79547 2.40665 9.63877 2.24995 9.44547 2.24995H6.55515ZM2.64219 11.0836C2.44889 11.0836 2.29219 11.2403 2.29219 11.4336V13.3999C2.29219 13.5932 2.44889 13.7499 2.64219 13.7499H5.53251C5.72581 13.7499 5.88251 13.5932 5.88251 13.3999V11.4336C5.88251 11.2403 5.72581 11.0836 5.53251 11.0836H2.64219ZM10.1181 11.4336C10.1181 11.2403 10.2748 11.0836 10.4681 11.0836H13.3584C13.5517 11.0836 13.7084 11.2403 13.7084 11.4336V13.3999C13.7084 13.5932 13.5517 13.7499 13.3584 13.7499H10.4681C10.2748 13.7499 10.1181 13.5932 10.1181 13.3999V11.4336Z" fill="black"/>
</svg>

<svg xmlns="http://www.w3.org/2000/svg" width="16" height="16" fill="none" viewBox="0 0 16 16"><path fill="#000" fill-rule="evenodd" d="M4.9052 2.6c0-.9113.7387-1.65 1.65-1.65h2.8903c.9112 0 1.65.7387 1.65 1.65v1.9662c0 .9113-.7388 1.65-1.65 1.65h-.7952V7.223h3.0701a.65.65 0 0 1 .65.65v1.9106h.988c.9113 0 1.65.7388 1.65 1.65v1.9663c0 .9113-.7387 1.65-1.65 1.65h-2.8903c-.9112 0-1.65-.7387-1.65-1.65v-1.9663c0-.9112.7387-1.65 1.65-1.65h.6023V8.523h-6.14v1.2606h.6021c.9113 0 1.65.7388 1.65 1.65v1.9663c0 .9113-.7387 1.65-1.65 1.65H2.6422c-.9113 0-1.65-.7387-1.65-1.65v-1.9663c0-.9112.7387-1.65 1.65-1.65h.9881V7.873a.65.65 0 0 1 .65-.65h3.07V6.2162h-.7951c-.9113 0-1.65-.7387-1.65-1.65zm1.65-.35a.35.35 0 0 0-.35.35v1.9662a.35.35 0 0 0 .35.35h2.8903a.35.35 0 0 0 .35-.35V2.6a.35.35 0 0 0-.35-.35zm-3.913 8.8336a.35.35 0 0 0-.35.35v1.9663a.35.35 0 0 0 .35.35h2.8903a.35.35 0 0 0 .35-.35v-1.9663a.35.35 0 0 0-.35-.35zm7.4759.35a.35.35 0 0 1 .35-.35h2.8903a.35.35 0 0 1 .35.35v1.9663a.35.35 0 0 1-.35.35h-2.8903a.35.35 0 0 1-.35-.35z"/></svg>
